modules/hawcons-filled/icons/sailing-boat-water.svg

<?xml version="1.0" encoding="UTF-8" standalone="no"?>
<svg width="32px" height="32px" viewBox="0 0 32 32" version="1.1" xmlns="http://www.w3.org/2000/svg" xmlns:xlink="http://www.w3.org/1999/xlink" xmlns:sketch="http://www.bohemiancoding.com/sketch/ns">
    <!-- Generator: Sketch 3.0.3 (7891) - http://www.bohemiancoding.com/sketch -->
    <title>icon 44 sailing boat water</title>
    <desc>Created with Sketch.</desc>
    <defs></defs>
    <g id="Page-1" stroke="none" stroke-width="1" fill="none" fill-rule="evenodd" sketch:type="MSPage">
        <g id="icon-44-sailing-boat-water" sketch:type="MSArtboardGroup" fill="#929292">
            <path d="M21.6711227,23 L22.0006308,23 C24.2094214,23 26,21.2046438 26,19 L25.9047619,19 L16,19 L16,19 L16,4 L15,4 L15,19 L5.0952381,19 L5.00000001,19 C5.00000001,19.8760429 5.28155708,20.6863095 5.75911466,21.3452053 C9.41988394,19.5736785 13.3448526,19.3698724 17.2451306,21.5637788 C18.759927,22.4158517 20.2383721,22.8758819 21.6711227,23 L21.6711227,23 L21.6711227,23 Z M26,18 L17,18 L17,9 L26,18 L26,18 Z M8.00000001,9.5 C5.00000001,14.5 5.00000001,18 5.00000001,18 L14,18 C14,18 13,16.5 13,12 C13,7.5 14,4 14,4 C14,4 11,4.5 8.00000001,9.5 L8.00000001,9.5 Z M3.00000001,25.0002765 C3.43236755,24.6808784 3.90145718,24.366461 4.40449508,24.0662609 C8.43642716,21.6601079 12.8459287,21.1013697 17.2243154,23.5642122 C21.2454892,25.8261225 25.0104996,25.3253524 28.3445677,23.1119187 C28.9676127,22.6982892 29.5218456,22.2553569 30,21.8128626 L30,23.1351685 C29.658944,23.4118442 29.2911141,23.6838309 28.8976618,23.9450375 C25.2756119,26.3496576 21.1192781,26.9024762 16.7340541,24.4357878 C12.7121486,22.1734659 8.66913991,22.685765 4.91695259,24.9249735 C4.20432768,25.3502497 3.56383784,25.8059828 3.00635225,26.2609895 C3.00423059,26.2627211 3.00211317,26.2644502 3,26.2661767 L3.00000001,25.0002765 L3.00000001,25.0002765 L3.00000001,25.0002765 Z M5.97918473,26.2315158 C9.57096739,24.5663353 13.4094518,24.4183515 17.2243154,26.5642122 C20.7057597,28.5225247 23.9951911,28.4100099 26.9791847,26.9080898 L26.9791847,28.0171869 C23.8363841,29.4505192 20.3636203,29.4774188 16.7340541,27.4357878 C13.0890325,25.3854631 9.42667744,25.6141165 5.97918473,27.3418345 L5.97918473,26.2315158 L5.97918473,26.2315158 L5.97918473,26.2315158 Z" id="sailing-boat-water" sketch:type="MSShapeGroup"></path>
        </g>
    </g>
</svg>

<svg width="32" height="32" viewBox="0 0 32 32" xmlns="http://www.w3.org/2000/svg"><path d="M21.671 23h.33C24.209 23 26 21.205 26 19H16V4h-1v15H5c0 .876.282 1.686.76 2.345 3.66-1.771 7.585-1.975 11.485.219 1.515.852 2.993 1.312 4.426 1.436zM26 18h-9V9l9 9zM8 9.5c-3 5-3 8.5-3 8.5h9s-1-1.5-1-6 1-8 1-8-3 .5-6 5.5zM3 25c.432-.32.901-.634 1.404-.934 4.032-2.406 8.442-2.965 12.82-.502 4.021 2.262 7.786 1.761 11.12-.452a13.166 13.166 0 0 0 1.656-1.3v1.323c-.341.277-.709.549-1.102.81-3.622 2.405-7.779 2.957-12.164.49-4.022-2.262-8.065-1.75-11.817.49A15.997 15.997 0 0 0 3 26.266V25zm2.98 1.232c3.591-1.666 7.43-1.814 11.244.332 3.482 1.959 6.771 1.846 9.755.344v1.11c-3.143 1.433-6.615 1.46-10.245-.582-3.645-2.05-7.307-1.822-10.755-.094v-1.11z" fill="#929292" fill-rule="evenodd"/></svg>
